X:1
T:Title
%%score { 1 | ( 2 3 ) }
L:1/8
M:2/4
K:G
V:1 treble nm="Grand Piano"
V:2 bass 
V:3 bass 
V:1
 z2 z[Q:1/4=86] D | BB BB | B d2 d | [DG][DG] [FA][FA] | B3 D | BB BB | B d2 d | ed BG | [DFA]3 D | %9
 BB BB | B d2 [B,Gd] | [DG][DG] [FA][FA] | B3 d | ed cB | [Bd][Ac] [GB][CFA] | %15
 [B,G][B,D] [DGB][CFA] | [B,G]4 | [Bd][GB] [Bd]2 | [ce][EAc] [Ece]2 | [Bd][DGB] [DGB][B,G] | %20
 [GB][FA] [FA]2 | [Bd][GB] [Bd]2 |[M:9/16] ec/-c/e-e/[ce] |[M:2/4] [Bd][B,G] [DGB][CFA] | [B,G]4 | %25
 [Bd][GB] [Bd]2 | [ce][EAc] [Ece]2 | [Bd][DGB] [DGB][B,G] | [GB][FA] [FA]2 | [Bd][GB] [Bd]2 | %30
[M:9/16] ec/-c/e-e/[ce] |[M:2/4] [Bd][B,G] [DGB][CFA] | [B,G]4 |] %33
V:2
 z2 z D, | [G,D][G,D] [G,D][G,D] | [G,D] [G,B,G]2 [G,B,G] | B,,B,, [D,D][D,D] | [G,DG]3 [G,B,] | %5
 [G,D][G,D] [G,D][G,D] | [G,D] [G,B,G]2 [G,B,G] | [G,CG][G,B,G] [G,DG][K:bass][G,B,] | D,3 D, | %9
 [G,D][G,D][K:treble] [G,D][G,D] | D G2[K:bass] G,, | B,,B,, [D,D][D,D] | [G,DG]3 [G,B,G] | %13
 [CG][B,DG] [A,DG][G,DG] | [D,D][D,D] [D,D]D, | D,D, D,D, | G,4 | [G,B,][G,D] [G,D]2 | %18
 [C,C]C, C,2 | G,G, G,G, | [D,D][D,D] [D,D]2 | [G,B,][K:treble][G,D] [G,D]2 | %22
[M:9/16] [Cc][CA]/-[CA]/[Cc]-[Cc]/[K:bass][C,G,] |[M:2/4] [D,G,]D, D,D, | G,,4 | %25
 [G,B,][G,D] [G,D]2 | [C,C]C, C,2 | G,G, G,G, | [D,D][D,D] [D,D]2 | [G,B,][K:treble][G,D] [G,D]2 | %30
[M:9/16] [Cc][CA]/-[CA]/[Cc]-[Cc]/[K:bass][C,G,] |[M:2/4] [D,G,]D, D,D, | G,,4 |] %33
V:3
 x4 | x4 | x4 | x4 | x4 | x4 | x4 | x3[K:bass] x | x4 | x2[K:treble] x2 | G,4[K:bass] | x4 | x4 | %13
 x4 | x4 | x4 | x4 | x4 | x4 | x4 | x4 | x[K:treble] x3 |[M:9/16] x7/2[K:bass] x |[M:2/4] x4 | x4 | %25
 x4 | x4 | x4 | x4 | x[K:treble] x3 |[M:9/16] x7/2[K:bass] x |[M:2/4] x4 | x4 |] %33

